src/assets/img/Security/icons/pilesicon.svg

<svg width="34" height="34" viewBox="0 0 34 34" fill="none" xmlns="http://www.w3.org/2000/svg">
<g id="Icon">
<g id="Union">
<path d="M16.4963 2.252C16.8107 2.08267 17.1893 2.08267 17.5037 2.252L31.3162 9.6895C31.6604 9.87481 31.875 10.2341 31.875 10.625C31.875 11.0159 31.6604 11.3752 31.3162 11.5605L17.5037 18.998C17.1893 19.1673 16.8107 19.1673 16.4963 18.998L2.68377 11.5605C2.33961 11.3752 2.125 11.0159 2.125 10.625C2.125 10.2341 2.33961 9.87481 2.68377 9.6895L16.4963 2.252Z" fill="#CAFF33"/>
<path d="M4.62496 15.0192L15.4888 20.869C16.4322 21.377 17.5678 21.377 18.5112 20.869L29.375 15.0192L31.3162 16.0645C31.6604 16.2498 31.875 16.6091 31.875 17C31.875 17.3909 31.6604 17.7502 31.3162 17.9355L17.5037 25.373C17.1893 25.5423 16.8107 25.5423 16.4963 25.373L2.68377 17.9355C2.33961 17.7502 2.125 17.3909 2.125 17C2.125 16.6091 2.33961 16.2498 2.68377 16.0645L4.62496 15.0192Z" fill="#CAFF33"/>
<path d="M15.4888 27.244L4.62496 21.3942L2.68377 22.4395C2.33961 22.6248 2.125 22.9841 2.125 23.375C2.125 23.7659 2.33961 24.1252 2.68377 24.3105L16.4963 31.748C16.8107 31.9173 17.1893 31.9173 17.5037 31.748L31.3162 24.3105C31.6604 24.1252 31.875 23.7659 31.875 23.375C31.875 22.9841 31.6604 22.6248 31.3162 22.4395L29.375 21.3942L18.5112 27.244C17.5678 27.752 16.4322 27.752 15.4888 27.244Z" fill="#CAFF33"/>
</g>
</g>
</svg>

<svg width="34" height="34" fill="none" xmlns="http://www.w3.org/2000/svg"><g fill="#CAFF33"><path d="M16.496 2.252c.315-.17.693-.17 1.008 0L31.316 9.69a1.062 1.062 0 0 1 0 1.87l-13.812 7.438c-.315.17-.693.17-1.008 0L2.684 11.56a1.062 1.062 0 0 1 0-1.87l13.812-7.438Z"/><path d="m4.625 15.02 10.864 5.849a3.188 3.188 0 0 0 3.022 0l10.864-5.85 1.941 1.045a1.062 1.062 0 0 1 0 1.872l-13.812 7.437c-.315.17-.693.17-1.008 0L2.684 17.935a1.062 1.062 0 0 1 0-1.87l1.941-1.046Z"/><path d="m15.489 27.244-10.864-5.85-1.941 1.046a1.062 1.062 0 0 0 0 1.87l13.812 7.438c.315.17.693.17 1.008 0l13.812-7.438a1.062 1.062 0 0 0 0-1.87l-1.941-1.046-10.864 5.85a3.188 3.188 0 0 1-3.022 0Z"/></g></svg>
